X:1
T:Rimsky-Korsakov harmonic exercises 21
T:Rimsky-Korsakov harmonic exercises 21
T:Realizations by S. Shchetnikov
T:"Practical Manual of Harmony" (1885)
C:Realizations by S. Shchetnikov
%%score { ( 1 2 ) | ( 3 4 ) }
L:1/8
Q:1/2=130
M:2/1
K:C
V:1 treble nm="Piano" snm="Pno."
V:2 treble 
V:3 bass 
V:4 bass 
V:1
"""^Seventh chords vii (half-diminished and diminished)""^Examples by Rimsky-Korsakov:""_C:" !courtesy!_A8"" G8 |] %1
"" B8"" c8 |]"" d8"" e8 |]"" f8"" e8 |][M:3/1]"""_C:" !courtesy!_A8"" A8"" G8 |] %5
"" G8"" !courtesy!_A8"" G8 |]"" A8"" A8"" G8 |]"" d8"" B8"" c8 |][M:2/1]"" A8"" G8 |]"" B8"" c8 |] %10
[M:2/4] z2""[Q:1/4=60]"^Example 21 by Rimsky-Korsakov:""_C:" G2 |"""" _A4 |"" G2"" c2 |"" B2"" c2 | %14
"" c2"" B2 |"" c2"" _A2 |"" _A2"" G2 |"" F2"" D2 |"" C2 z2 |][K:Ab] z4 | z4 | z4 | z4 | z4 | z4 | %25
 z4 | z4 |]"""""^Realization 21.1""_A♭:" A4 |"" A2"" B2 |"" c2"" e2 |"" B2 G2 |"" A2 _f2 |"""" e4 | %33
"" d2"" G2 |"" A4 |] %35
V:2
 D8 E8 |] F8 E8 |] !courtesy!_A8 G8 |] B8 c8 |][M:3/1] F8 F8 E8 |] E8 F8 E8 |] F8 F8 E8 |] %7
 !courtesy!_A8 A8 G8 |][M:2/1] B,8 C8 |] D8 C8 |][M:2/4] z2 E2 | F4 | E2 F2 | G4 | F2 D2 | C4 | %16
 B,2 C2 | C2 B,2 | C2 z2 |][K:Ab] x4 | x4 | x4 | x4 | x4 | x4 | x4 | x4 |] E4 | _F4 | E4 | E4 | %31
 _F2 A2 | G2 A2 | D4 | C4 |] %35
V:3
 F,8 E,8 |] !courtesy!_A,8 G,8 |] B,8 C8 |] D8 E8 |][M:3/1] C8 D8 E8 |] E8 D8 E8 |] D8 D8 E8 |] %7
 D8 D8 E8 |][M:2/1] F,8 G,8 |] _A,8 G,8 |][M:2/4] z2 C2 | C2 D2 | E2 C2 | D2 C2 | _A,4 | G,2 F,2 | %16
 F,2 G,2 | _A,2 G,2 | E,2 z2 |][K:Ab]"^Exercise 21.1" A,,2 C,2 | D,2 G,,2 | A,,2 C,2 | E,4 | D,4 | %24
 B,,2 A,,2 | _F,2 E,2 | A,,4 |] C2 E2 | D4 | C2 A,2 | G,2 B,2 | D4 | D2 C2 | B,4 | A,4 |] %35
V:4
 B,,8 C,8 |] D,8 E,8 |] F,8 E,8 |] !courtesy!_A,8 G,8 |][M:3/1] F,8 B,,8 C,8 |] C,8 B,,8 C,8 |] %6
 D,8 B,,8 C,8 |] F,8 F,8 E,8 |][M:2/1] D,8 E,8 |] F,8 E,8 |][M:2/4] z2 C,2 | F,2 B,,2 | C,2 _A,,2 | %13
 G,,2 E,2 | F,4 | E,2 F,2 | D,2 E,2 | F,2 G,2 | C,2 z2 |][K:Ab] x4 | x4 | x4 | x4 | x4 | x4 | x4 | %26
 x4 |] A,,2 C,2 | D,2 G,,2 | A,,2 C,2 | E,4 | D,4 | B,,2 A,,2 | _F,2 E,2 | A,,4 |] %35

